// Intro 

t190
q2 o5 @5a8 rr o4 @5e8 rr e8 rr e8 rr e8 rr e8 rr e8 rr e8 rr e8 rr e8 rr e8 rr e8 rr e8 rr e8 rr e8 rr e8 rr e8 rrr;
q2 o5 @5e8 rrrr o4 @6e8 rrr @6e8 rrrrrr @6e8 rrrrrr @6e8 rrrrrr @6e8 rr @6e8 rr @6e8 rrrrrr @6e8 rrrrrr @6e8 rrrrrr @6e8 rrrrr;

// Verse [Repeat 2x]

// Chorus 1 [Repeat 2x]

// [Repeat 3x]





